X:1
T:The Easter Bells
T:The Easter Bells
T:Joseph Lincoln Hall
T:Ida Lilliard Reed, 1900
T:Public Domain Courtesy of the Cyber Hymnal™
T:Public Domain Courtesy of the Cyber Hymnal™
C:Joseph Lincoln Hall
Z:Public Domain
Z:Courtesy of the Cyber Hymnal™
%%score ( 1 2 ) ( 3 4 )
L:1/8
Q:1/4=102
M:6/8
K:G
V:1 treble 
V:2 treble 
V:3 bass 
V:4 bass 
V:1
 [B,D] | [DB]2 [DB] [CA]2 [CB] | [CA]3 [B,G]2 [^DF] | [CE]2 [CE] (EF)[CG] | [B,D]3- [B,D]2 [DB] | %5
w: 1.~The|Eas- ter bells are|ring- ing, A|mes- sage sweet * and|low— * As|
w: 2.~The|sil- very notes far|swell- ing, Fall|sweet- ly on * my|ear * As|
w: 3.~Now|soft- ly, soft- ly|dy- ing, In|si- lence drifts * a-|way, * The|
 [Dd]2 [Dd] [Dc]2 [Dd] | [Dc]3 [DB]2 [DB] | [^CA]2 [CE] [CF]2 [CG] | [CA]6 || %9
w: to and fro they’re|swing- ing; From|out the long a-|go.|
w: once a- gain they’re|tell- ing, The|sto- ry ev- er|dear.|
w: won- drous news so|bless- èd, “The|Lord a- rose to-|day.”|
"^Refrain" [B,D]2 [B,E] [B,F]2 [B,G] | [B,B] [B,B]2 ([dgb] [dgb]2) | c [Fc]2 ([dfac'] [dfac']2) | %12
w: |||
w: Chim- ing bells are|ring- ing, * *|Ring- ing, * *|
w: |||
 [Gd] [Gd]2 ([dgbd'] [dgbd']2) | [B,D]2 [B,E] [B,F]2 [B,G] | [B,B] [B,B]2 ([dgb] [dgb]2) | %15
w: |||
w: ring- ing, * *|Chim- ing bells are|ring- ing, * *|
w: |||
 (^cB)[GA] [GB]2 [Gc] | (z [Acdd'][dd'] z [EGdd'][DFAcdd']) | [B,D]2 [B,E] [B,F]2 [B,G] | %18
w: |||
w: Ring- * ing sweet and||* clear; Chim- ing|
w: |||
 [B,B] [B,B]2 ([dgb] [dgb]2) | [Fc] [Fc]2 ([dfac'] [dfac']2) | [Gd] [Gd]2 ([dgbd'] [dgbd']2) | %21
w: |||
w: bells are * *|ring- ing, * *|Ring- ing, * *|
w: |||
 [Ge]2 [Ge] [Gd]3 | [DFc]2 [DFc] [DGB]3 | (GF)[=CG] [DB]2 [CA] | [B,G]3- [B,G]2 |] %25
w: ||||
w: ring- ing, Chim-|ing bells, chim-|ing * bells, Ring- ing|sweet *|
w: ||||
V:2
 x | x6 | x6 | x3 C2 x | x6 | x6 | x6 | x6 | x6 || x6 | x6 | x6 | x6 | x6 | x6 | G2 x4 | %16
 [Fd]3 [Fd]3 | x6 | x6 | x6 | x6 | x6 | x6 | ^C2 x4 | x5 |] %25
V:3
 [G,,G,] | [G,,G,]2 [G,,G,] [D,F,]2 [D,F,] | [^D,F,]3 [E,G,]2 [B,,A,] | [C,G,]2 [C,G,] G,2 [E,G,] | %4
 G,3- G,2 G, | [G,B,]2 [G,B,] [F,A,]2 [F,A,] | [F,A,]3 G,2 [G,,G,] | %7
 [A,,E,]2 [A,,A,] [A,,A,]2 [A,,G,] | [D,F,]6 || [G,,D,]2 [G,,D,] [G,,D,]2 [G,,D,] | %10
 [G,,D,] [G,,D,]2[K:treble] ([DGB] [DGB]2) | [D,A,] [D,A,]2[K:treble] ([DFAc] [DFAc]2) | %12
 [G,B,] [G,B,]2[K:treble] ([DGB] [DGB]2) | [G,,D,]2 [G,,D,] [G,,D,]2 [G,,D,] | %14
 [G,,D,] [G,,D,]2[K:treble] ([DGB] [DGB]2) | (ED)[A,C] [A,D]2 [A,E] | [D,D]6 | %17
 [G,,D,]2 [G,,D,] [G,,D,]2 [G,,D,] | [G,,D,]2 [G,,D,][K:treble] ([DGB] [DGB]2) | %19
 [D,A,] [D,A,]2[K:treble] ([DFAc] [DFAc]2) | [G,B,] [G,B,]2[K:treble] ([DGB] [DGB]2) | %21
 [C,C]2 [C,C] [B,,B,]3 | [A,,A,]2 [A,,A,] [G,,G,]3 | [_E,_B,]2 [E,B,] [D,G,]2 [D,F,] | %24
 [G,,D,G,]3- [G,,D,G,]2 |] %25
V:4
 x | x6 | x6 | x3 (C,D,) x | G,3- G,2 G, | x6 | x3 G,2 x | x6 | x6 || x6 | x3[K:treble] x3 | %11
 x3[K:treble] x3 | x3[K:treble] x3 | x6 | x3[K:treble] x3 | A,2 x4 | x6 | x6 | x3[K:treble] x3 | %19
 x3[K:treble] x3 | x3[K:treble] x3 | x6 | x6 | x6 | x5 |] %25

